build/Karasa-Jaga/scalable/actions/go-previous-rtl-symbolic.svg

<svg height="16" width="16" xmlns="http://www.w3.org/2000/svg"><path d="m7.1972659 2.2597656 7.8750001 5.7480469c-.0014.0052-.0027.010406-.0039.015625l-7.8593851 5.7324215-1.0566406-1.05664 2.3378906-2.337891c.5916105-.5917054 2.1726721-1.6033244 1.3359413-1.6035155h-8.89843795v-1.4902344h8.92578165c.8367331-.0001876-.7443254-1.0118089-1.3359375-1.6035156l-2.3496094-2.3496094z" fill="#bebebe"/></svg>

<?xml version="1.0" encoding="UTF-8" standalone="no"?>
<!-- Created with Inkscape (http://www.inkscape.org/) -->

<svg
   xmlns:dc="http://purl.org/dc/elements/1.1/"
   xmlns:cc="http://creativecommons.org/ns#"
   xmlns:rdf="http://www.w3.org/1999/02/22-rdf-syntax-ns#"
   xmlns:svg="http://www.w3.org/2000/svg"
   xmlns="http://www.w3.org/2000/svg"
   xmlns:sodipodi="http://sodipodi.sourceforge.net/DTD/sodipodi-0.dtd"
   xmlns:inkscape="http://www.inkscape.org/namespaces/inkscape"
   width="16px"
   height="16px"
   id="svg13294"
   version="1.1"
   inkscape:version="0.92.2 (unknown)"
   sodipodi:docname="go-previous-rtl-symbolic.svg">
  <defs
     id="defs13296" />
  <sodipodi:namedview
     id="base"
     pagecolor="#ffffff"
     bordercolor="#666666"
     borderopacity="1.0"
     inkscape:pageopacity="0.0"
     inkscape:pageshadow="2"
     inkscape:zoom="16"
     inkscape:cx="-8.9057193"
     inkscape:cy="7.2323592"
     inkscape:current-layer="layer1"
     showgrid="true"
     inkscape:grid-bbox="true"
     inkscape:document-units="px"
     inkscape:window-width="1366"
     inkscape:window-height="706"
     inkscape:window-x="0"
     inkscape:window-y="0"
     inkscape:window-maximized="1" />
  <metadata
     id="metadata13299">
    <rdf:RDF>
      <cc:Work
         rdf:about="">
        <dc:format>image/svg+xml</dc:format>
        <dc:type
           rdf:resource="http://purl.org/dc/dcmitype/StillImage" />
        <dc:title></dc:title>
      </cc:Work>
    </rdf:RDF>
  </metadata>
  <g
     id="layer1"
     inkscape:label="Layer 1"
     inkscape:groupmode="layer">
    <path
       style="color:#000000;display:inline;overflow:visible;visibility:visible;fill:#bebebe;fill-opacity:1;fill-rule:nonzero;stroke:none;stroke-width:1;marker:none;enable-background:accumulate"
       d="m 7.1972659,2.2597656 7.8750001,5.7480469 c -0.0014,0.0052 -0.0027,0.010406 -0.0039,0.015625 L 7.2089809,13.755859 6.1523403,12.699219 8.4902309,10.361328 C 9.0818414,9.7696226 10.662903,8.7580036 9.8261722,8.7578125 H 0.92773425 V 7.2675781 H 9.8535159 C 10.690249,7.2673905 9.1091905,6.2557692 8.5175784,5.6640625 L 6.167969,3.3144531 Z"
       id="path29297"
       inkscape:connector-curvature="0"
       sodipodi:nodetypes="ccccccccccccc" />
  </g>
</svg>
